public/avatar/hat/321.svg

<svg xmlns:xlink="http://www.w3.org/1999/xlink" height="92.9" width="100.7" xmlns="http://www.w3.org/2000/svg"><use height="42.8" transform="translate(20.4 38.55)" width="35.5" xlink:href="#a"/><defs><g id="a" fill-rule="evenodd"><path d="m12.05 20.5-.5 2.05-2.9 7q2.75-8 3.6-16.4l-.2 7.35m-23.25 0 .55 2.35.85 2.95.8 2.75-1.95-4.85q-2.05-6-1.55-12.4l1.3 9.2M4.25-9.45l-.3.3q.1-.9.2-.6l.1.3M1.4-4.7l.5.05Q5.45-4.35 8-2l1.7 2-.85-.75-7.6-3.85.15-.1M10.9.65l-.15-1 .55.5.85 2.35L10.9.65M3.55-5h-.1l.2-.15-.1.15M3.2-5l1.15-2.25L4-5.95 3.2-5m-3.1.8q0 .3.15.6 1.2 2.55 3.5 4l-1.6-2.7Q4.1.8 7.4 2.2l1.4 2.05-1.15-.65L9.3 5.15 2.8.05l2.15 3L3.65.9q2.3 3.45 6.15 5.85l-.45-.15.5.35-1.25-.6L8.05 6Q4.25 4 2.45.1l-.6-.75.8 2.15-2.8-3.35q2.8 3.55 4.25 8.1v.05L2.25 3.5l-.75-.7-.85-.35.75 4.6.7 1.75L.55 6.3q-1.6-3.7-2.7-7.85l-.4-2.2L-3.7.15-1.6 5l.45.65.15.2.1.2.85 1.3-.7-.5-.15-.15-.05-.05-.15-.05.05.1.05.1.15.55-1.8-2.9-.95-2.4.3 1.1-1.35-3.2.8-3.1-1.45 1.8-4.65 4.1-2.25 5.15-.3 1.35-.3-.8-.3-.85 1.3-3-.8.45-.45 1.25.05-.8-.75.9.25-1.35L-11.75 3l3.6-3.55L-10 .75l.3-.5-4.25 3.45-1.45.1.9-1.05.35-.15.15-.35L-11.7.6l1.4-.65 6.75-4-5.15 2.2-.05-.35v-.15l-1.65.65 2.45-1.45.2-.1L-3.7-4.8l3.8.6m8.55 6.65 1.2-.25-4.9-3.85.7.2-3.7-2.5 1.1.45q3.5 1.45 6 4.3L8.3-.65 9.9 1.2l1.85 3.55.1-.55.45 1.3.3 1.6-.35 2.05-.15.4-.25-.95v-.75l-.6-3.05.05 2.1-.7-1.6.05.45-.8-1.55-1.2-1.75M.45-4.8l-.25.45L-1.7-6l.2 1.05-1.75-.3.05-.95 1.55-.6 2.1 2m11.7 5.95 1 1.6.4 1.15v-.8l.55.7q1.35 1.8 1.1 4.2l-1.3-2.2-.1-.25v-.1l-.65-.3-1-4m-8 5.05-.6-2.65.95 2.1-.35.55m-4.2-.75L0 5.6l-.75-1-1.75-5.8 2.45 6.65m-10.55-7.6.15-.05-.1.1.4-.1-1.6 1.05.4.15-.8-.2 1.55-.95m5.2 1 .15 1v.3l.15.45.05-.05L-3.6 5.5l1.65 2.55L-4 5.85-5.4 1.7l-.3 2.1-.9 1.05-.35-.95 1.05-2.65.45-.25-.05-.5V-.95L-5.9.4l-1.75 3-1.5.3-1.45 2.1-.6 2.9.4-2.6-.5.75-.35.45.55-1.4q2.15-4 5.7-7.05m-11.1 8.6 1.2-1.1.9 1.1q1.1 1.3-.3 1.6h-.1l-2-.6.3-1" fill="#b8e2e1" transform="translate(18.25 11.2)"/><path d="m3.8-11 .5.85q1.6 2.3.9 4.85l2.2.85Q10.9-2.9 12.65.2L12.6.15l.05.05.05.05 1.05 1.8 1.8 2.4q1.55 2 1.7 4.4l-4.3 5.3-.9 6.35.2-7.35q-.85 8.4-3.6 16.4l2.9-7-1.35 4.6q-.75 2.6-2.8 4.45 4.15-9.1 3.95-18.9l-.9.45-.5-4.05L4.7 5.7l-.2-.05-.75-2.1.15-.1q2.35 3.3 5.95 5.05l.45.2-.45-4.5.8 1.55.4 4.95.6-2.15.2.05.25.95h.1l.05-.4.35-2.05.15-.7.25-.05.5 4.8.15-5.55.15-.05.1.25.15 5.1L15.2 8q.25-2.4-1.1-4.2l-.55-.7-.4-.35-1-1.6-.85-1-.55-.5-.15-.35-.8-.6L3.55-5l.1-.15.35-.8.35-1.3-.1-2.2-.1-.3q-.1-.3-.2.6Q3.95-7.3 3.2-6q-.75 1.3-1.8 1.3l-.15.1-.3.05q-.3-.05-.5-.25l-2.1-2-1.55.6-7.25 4-.15.05-1.55.95.8.2.55.3q.6-.15.5.65l-1.4.65-2.3 1.65-.5.5-.9 1.05 1.45-.1 1.5-.1-1.05 1.45-.25 1.35.95 2.05.3.8.25.6.05-1.95.9 2.2V6.85l.5-.75-.4 2.6.6-2.9h.05l-.15 3.25 3.8-4.25.2.75 1.45-.6.9 1.05-.3-.6.65.45 2.05 2.2L-3.6 5.5l4.9 3.8L-1 6.8l-.05-.1.05-.05h.05l.05.05.15.15 3.2 2.7-.5-.65.15-.1-.7-1.75 1 1.5.1.5.15-1.55.1.25v-.9l.15-.1-.15 3.75q-5.25-.65-8.2-5.3L-6.8 6.4l-.35-1.3-3.25 4.1.1 4.25-1-.7-.1.05-.2 2.05.4.7v4.95l-1.3-9.2q-.5 6.4 1.55 12.4L-9 28.55l-.8-2.75.15-.05 1.25 3.3-.05.05h-.05v.05l.4 1.9q-.65-.45-1.15-1.45-3.75-7-4.25-14.75l.05-.05-.05-.05v.05l-4.2-5.55 1.95-4.4-2.5.55q2.2-3.95 6.55-5.7l-1.85-.4L-8-4.55Q-4.65-7-.6-7.4l2.2 1.7 2.1-5.25.1-.05M-16.5 7.45l-.3 1 1.3 2.95-.35-1.95.1-.05 1.15 2.1-.2-2.45h.1l.7 1.85-.1-1.75h.1l.45 1.1v-2.1q-.85-.45-.9-1.45l-.2-1.15-1.85 1.9m5.95 5.55.05-.6-.5-.15.45.75" fill="#344b49" transform="translate(18.25 11.2)"/><path d="m12.65.2.1.05h-.05L12.65.2M8-2l-.3-.5 2 2.5 1.45 1.8L10.9.65l1.25 1.85L11.3.15l.85 1 1 4 .65.3-.15.15-.15 5.55-.5-4.8-.4-1 .15 1.05-.15.7-.3-1.6-.45-1.3-.1.55L9.9 1.2 8.85-.75 9.7 0 8-2M3.45-5l-.3.1.05-.1.8-.95-.35.8-.2.15M7.4 2.2 5.95.05 5.3-.7l3.35 3.15 1.2 1.75.45 4.5-.45-.2Q6.25 6.75 3.9 3.45h-.1l-.05.1.75 2.1-.95-2.1.6 2.65-.05.05Q2.65 1.7-.15-1.85l2.8 3.35-.8-2.15.6.75Q4.25 4 8.05 6L9.5 7.3l-.9-.95 1.25.6-.5-.35.45.15Q5.95 4.35 3.65.9l1.3 2.15-2.15-3 6.5 5.1L7.65 3.6l1.15.65L7.4 2.2M.2-4.35l-.1.15-3.8-.6-.1-.05q-.05-.3.55-.4l1.75.3L-1.7-6 .2-4.35m-8.15 1.2L-10.4-1.7l1.65-.65v.15l.05.35 5.15-2.2-6.75 4q.1-.8-.5-.65l-.55-.3-.4-.15 1.6-1.05 2.2-.95m-6 6.85L-9.7.25l-.3.5L-11.75 3l-1.75 2.05 1.05-1.45-1.5.1m.2 2.7.75-.9-.05.8.45-1.25.8-.45-1.3 3 .3.85-.95-2.05m1.25 2.85.3-1.35 2.25-5.15 4.65-4.1.05-.05-.15.25Q-8.95 1.9-11.1 5.9l-.55 1.4.35-.45v3.25l-.9-2.2-.05 1.95-.25-.6m7.85-9.3 1.35 3.2.65 1.3 1.8 2.9L-1 6.8l2.3 2.5-4.9-3.8L-5.05.55l.4-.6m3.6 6.75-.05-.1.15.05H-1l-.05.05m3.3-3.2L4.1 6.3l-.7.55-.6-.6-.55-2.75m10.9-.75.4.35v.8l-.4-1.15M15.2 8l-1.15 2.9-.15-5.1L15.2 8m-3.55.55-.6 2.15-.4-4.95-.05-.45.7 1.6-.05-2.1.6 3.05-.2.7M-10.6 5.8l1.45-2.1 1.5-.3 1.75-3 .4-.35V.5l-.25.3-.15.45-1.05 2.65.35.95.9-1.05.3-2.1L-4 5.85l-.65-.45.3.6-.9-1.05-1.45.6-.2-.75-3.8 4.25.15-3.25v-.05l-.05.05M-5.25.15v-.3l.6-.5-.6.8m-9.45 8.9q1.4-.3.3-1.6l-.9-1.1-1.2 1.1 1.85-1.9.2 1.15q.05 1 .9 1.45v2.1l-.45-1.1V9.1l-.1.05.1 1.75-.7-1.85m-2.1-.6 2 .6.2 2.45-1.15-2.1-.1.05.35 1.95-1.3-2.95m6.25 4.55-.45-.75.5.15-.05.6" fill="#739b99" transform="translate(18.25 11.2)"/><path d="m3.7-10.95-.05-.15q.1-.25.15.1l-.1.05m1 16.65-.5 2.35-1.3-1.3-.15.1v.9l-.1-.25-.15 1.55-.1-.5-1-1.5-.75-4.6.85.35.75.7.55 2.75.6.6.7-.55v-.05l.05-.05.35-.55.2.05m-16 7.05.35.6-.45-.55.1-.05m.65 10.1 1 2.9-.15.05-.85-2.95m-2.85-8v-.1l.05.05-.05.05M8.05 6l.55.35.9.95L8.05 6m5.75-.45-.15.05.15-.15v.1m-.8.8-.25.05-.15-1.05.4 1m-.75 2.8-.05.4h-.1l.15-.4m-.4-.55-.2-.05.2-.7v.75M3.9 3.45l-.15.1.05-.1h.1M1.5 2.8l.45 2.8-.1-.55.8 2.45-.8-2.45.1.55-.45-2.8m.9 5.75V8.5l-.45-2.9.45 2.9v.05M-10.55 5.8h-.05l.05-.05v.05m-3.55 3.35.1-.05v.05h-.1" fill="#425e5c" transform="translate(18.25 11.2)"/><path d="m3.95-9.15.3-.3.1 2.2L3.2-5l-.05.1.3-.1h.1L9.8-1.3l.8.6.15.35.15 1 .25 1.15L9.7 0l-2-2.5.3.5Q5.45-4.35 1.9-4.65l-.5-.05q1.05 0 1.8-1.3t.75-3.15M7.4 2.2Q4.1.8 2.15-2.3L3.75.4q-2.3-1.45-3.5-4Q.1-3.9.1-4.2l.1-.15.25-.45q.2.2.5.25l.3-.05 7.6 3.85L9.9 1.2 8.3-.65 9.05.8q-2.5-2.85-6-4.3l-1.1-.45 3.7 2.5-.7-.2 4.9 3.85-1.2.25L5.3-.7l.65.75L7.4 2.2m-11.1-7-4.05 1.55-.2.1-2.2.95-.4.1.1-.1 7.25-4-.05.95q-.6.1-.55.4l.1.05M-14 2.25l-.15.35-.35.15.5-.5m4-1.5 1.85-1.3-3.6 3.55L-10 .75m4.7-2.1 1.45-1.8-.8 3.1-.4.6-.05.05-.15-.45.6-.8-.6.5-.15-1 .15-.25-.05.05m2 4.5-.3-1.1.95 2.4-.65-1.3m2.55 3.7.7.5-.85-1.3-.1-.2-.15-.2L-1.6 5-3.7.15l1.15-3.9.4 2.2Q-1.05 2.6.55 6.3L2.1 8.8l-.15.1.5.65-3.2-2.7m.7-1.4.5.65.1.2-.1-.2-.5-.65L-2.5-1.2l1.75 5.8.75 1-.05-.15m2 3.45L.45 6.1l1.5 2.8M-.9 6.05l-.8-2.55.95 1.1-.95-1.1.8 2.55M-5.9.4l.4-1.35v1l-.4.35m.4.1.05.5-.45.25.15-.45.25-.3" fill="#fff" transform="translate(18.25 11.2)"/></g></defs></svg>

<?xml version="1.0" encoding="UTF-8" standalone="no"?>
<svg xmlns:xlink="http://www.w3.org/1999/xlink" height="92.9px" width="100.7px" xmlns="http://www.w3.org/2000/svg">
  <g transform="matrix(1.0, 0.0, 0.0, 1.0, 38.65, 49.75)">
    <use height="42.8" transform="matrix(1.0, 0.0, 0.0, 1.0, -18.25, -11.2)" width="35.5" xlink:href="#shape0"/>
  </g>
  <defs>
    <g id="shape0" transform="matrix(1.0, 0.0, 0.0, 1.0, 18.25, 11.2)">
      <path d="M12.05 20.5 L11.55 22.55 8.65 29.55 Q11.4 21.55 12.25 13.15 L12.05 20.5 M-11.2 20.5 L-10.65 22.85 -9.8 25.8 -9.0 28.55 -10.95 23.7 Q-13.0 17.7 -12.5 11.3 L-11.2 20.5 M4.25 -9.45 L3.95 -9.15 Q4.05 -10.05 4.15 -9.75 L4.25 -9.45 M1.4 -4.7 L1.9 -4.65 Q5.45 -4.35 8.0 -2.0 L9.7 0.0 8.85 -0.75 1.25 -4.6 1.4 -4.7 M10.9 0.65 L10.75 -0.35 11.3 0.15 12.15 2.5 10.9 0.65 M3.55 -5.0 L3.45 -5.0 3.65 -5.15 3.55 -5.0 M3.2 -5.0 L4.35 -7.25 4.0 -5.95 3.2 -5.0 M0.1 -4.2 Q0.1 -3.9 0.25 -3.6 1.45 -1.05 3.75 0.4 L2.15 -2.3 Q4.1 0.8 7.4 2.2 L8.8 4.25 7.65 3.6 9.3 5.15 2.8 0.05 4.95 3.05 3.65 0.9 Q5.95 4.35 9.8 6.75 L9.35 6.6 9.85 6.95 8.6 6.35 8.05 6.0 Q4.25 4.0 2.45 0.1 L1.85 -0.65 2.65 1.5 -0.15 -1.85 Q2.65 1.7 4.1 6.25 L4.1 6.3 2.25 3.5 1.5 2.8 0.65 2.45 1.4 7.05 2.1 8.8 0.55 6.3 Q-1.05 2.6 -2.15 -1.55 L-2.55 -3.75 -3.7 0.15 -1.6 5.0 -1.15 5.65 -1.0 5.85 -0.9 6.05 -0.05 7.35 -0.75 6.85 -0.9 6.7 -0.95 6.65 -1.1 6.6 -1.05 6.7 -1.0 6.8 -0.85 7.35 -2.65 4.45 -3.6 2.05 -3.3 3.15 -4.65 -0.05 -3.85 -3.15 -5.3 -1.35 -9.95 2.75 -12.2 7.9 -12.5 9.25 -12.8 8.45 -13.1 7.6 -11.8 4.6 -12.6 5.05 -13.05 6.3 -13.0 5.5 -13.75 6.4 -13.5 5.05 -11.75 3.0 -8.15 -0.55 -10.0 0.75 -9.7 0.25 -13.95 3.7 -15.4 3.8 -14.5 2.75 -14.15 2.6 -14.0 2.25 -11.7 0.6 -10.3 -0.05 -3.55 -4.05 -8.7 -1.85 -8.75 -2.2 -8.75 -2.35 -10.4 -1.7 -7.95 -3.15 -7.75 -3.25 -3.7 -4.8 0.1 -4.2 M8.65 2.45 L9.85 2.2 4.95 -1.65 5.65 -1.45 1.95 -3.95 3.05 -3.5 Q6.55 -2.05 9.05 0.8 L8.3 -0.65 9.9 1.2 11.75 4.75 11.85 4.2 12.3 5.5 12.6 7.1 12.25 9.15 12.1 9.55 11.85 8.6 11.85 7.85 11.25 4.8 11.3 6.9 10.6 5.3 10.65 5.75 9.85 4.2 8.65 2.45 M0.45 -4.8 L0.2 -4.35 -1.7 -6.0 -1.5 -4.95 -3.25 -5.25 -3.2 -6.2 -1.65 -6.8 0.45 -4.8 M12.15 1.15 L13.15 2.75 13.55 3.9 13.55 3.1 14.1 3.8 Q15.45 5.6 15.2 8.0 L13.9 5.8 13.8 5.55 13.8 5.45 13.15 5.15 12.15 1.15 M4.15 6.2 L3.55 3.55 4.5 5.65 4.15 6.2 M-0.05 5.45 L0.0 5.6 -0.75 4.6 -2.5 -1.2 -0.05 5.45 M-10.6 -2.15 L-10.45 -2.2 -10.55 -2.1 -10.15 -2.2 -11.75 -1.15 -11.35 -1.0 -12.15 -1.2 -10.6 -2.15 M-5.4 -1.15 L-5.25 -0.15 -5.25 0.15 -5.1 0.6 -5.05 0.55 -3.6 5.5 -1.95 8.05 -4.0 5.85 -5.4 1.7 -5.7 3.8 -6.6 4.85 -6.95 3.9 -5.9 1.25 -5.45 1.0 -5.5 0.5 -5.5 0.05 -5.5 -0.95 -5.9 0.4 -7.65 3.4 -9.15 3.7 -10.6 5.8 -11.2 8.7 -10.8 6.1 -11.3 6.85 -11.65 7.3 -11.1 5.9 Q-8.95 1.9 -5.4 -1.15 M-16.5 7.45 L-15.3 6.35 -14.4 7.45 Q-13.3 8.75 -14.7 9.05 L-14.8 9.05 -16.8 8.45 -16.5 7.45" fill="#b8e2e1" fill-rule="evenodd" stroke="none"/>
      <path d="M3.8 -11.0 L4.3 -10.15 Q5.9 -7.85 5.2 -5.3 L7.4 -4.45 Q10.9 -2.9 12.65 0.2 L12.6 0.15 12.65 0.2 12.7 0.25 13.75 2.05 15.55 4.45 Q17.1 6.45 17.25 8.85 L12.95 14.15 12.05 20.5 12.25 13.15 Q11.4 21.55 8.65 29.55 L11.55 22.55 10.2 27.15 Q9.45 29.75 7.4 31.6 11.55 22.5 11.35 12.7 L10.45 13.15 9.95 9.1 4.7 5.7 4.5 5.65 3.75 3.55 3.9 3.45 Q6.25 6.75 9.85 8.5 L10.3 8.7 9.85 4.2 10.65 5.75 11.05 10.7 11.65 8.55 11.85 8.6 12.1 9.55 12.2 9.55 12.25 9.15 12.6 7.1 12.75 6.4 13.0 6.35 13.5 11.15 13.65 5.6 13.8 5.55 13.9 5.8 14.05 10.9 15.2 8.0 Q15.45 5.6 14.1 3.8 L13.55 3.1 13.15 2.75 12.15 1.15 11.3 0.15 10.75 -0.35 10.6 -0.7 9.8 -1.3 3.55 -5.0 3.65 -5.15 4.0 -5.95 4.35 -7.25 4.25 -9.45 4.15 -9.75 Q4.05 -10.05 3.95 -9.15 3.95 -7.3 3.2 -6.0 2.45 -4.7 1.4 -4.7 L1.25 -4.6 0.95 -4.55 Q0.65 -4.6 0.45 -4.8 L-1.65 -6.8 -3.2 -6.2 -10.45 -2.2 -10.6 -2.15 -12.15 -1.2 -11.35 -1.0 -10.8 -0.7 Q-10.2 -0.85 -10.3 -0.05 L-11.7 0.6 -14.0 2.25 -14.5 2.75 -15.4 3.8 -13.95 3.7 -12.45 3.6 -13.5 5.05 -13.75 6.4 -12.8 8.45 -12.5 9.25 -12.25 9.85 -12.2 7.9 -11.3 10.1 -11.3 6.85 -10.8 6.1 -11.2 8.7 -10.6 5.8 -10.55 5.8 -10.7 9.05 -6.9 4.8 -6.7 5.55 -5.25 4.95 -4.35 6.0 -4.65 5.4 -4.0 5.85 -1.95 8.05 -3.6 5.5 1.3 9.3 -1.0 6.8 -1.05 6.7 -1.0 6.65 -0.95 6.65 -0.9 6.7 -0.75 6.85 2.45 9.55 1.95 8.9 2.1 8.8 1.4 7.05 2.4 8.55 2.5 9.05 2.65 7.5 2.75 7.75 2.75 6.85 2.9 6.75 2.75 10.5 Q-2.5 9.85 -5.45 5.2 L-6.8 6.4 -7.15 5.1 -10.4 9.2 -10.3 13.45 -11.3 12.75 -11.4 12.8 -11.6 14.85 -11.2 15.55 -11.2 20.5 -12.5 11.3 Q-13.0 17.7 -10.95 23.7 L-9.0 28.55 -9.8 25.8 -9.65 25.75 -8.4 29.05 -8.45 29.1 -8.5 29.1 -8.5 29.15 -8.1 31.05 Q-8.75 30.6 -9.25 29.6 -13.0 22.6 -13.5 14.85 L-13.45 14.8 -13.5 14.75 -13.5 14.8 -17.7 9.25 -15.75 4.85 -18.25 5.4 Q-16.05 1.45 -11.7 -0.3 L-13.55 -0.7 -8.0 -4.55 Q-4.65 -7.0 -0.6 -7.4 L1.6 -5.7 3.7 -10.95 3.8 -11.0 M-16.5 7.45 L-16.8 8.45 -15.5 11.4 -15.85 9.45 -15.75 9.4 -14.6 11.5 -14.8 9.05 -14.7 9.05 -14.0 10.9 -14.1 9.15 -14.0 9.15 -13.55 10.25 -13.55 8.15 Q-14.4 7.7 -14.45 6.7 L-14.65 5.55 -16.5 7.45 M-10.55 13.0 L-10.5 12.4 -11.0 12.25 -10.55 13.0" fill="#344b49" fill-rule="evenodd" stroke="none"/>
      <path d="M12.65 0.2 L12.75 0.25 12.7 0.25 12.65 0.2 M8.0 -2.0 L7.7 -2.5 9.7 0.0 11.15 1.8 10.9 0.65 12.15 2.5 11.3 0.15 12.15 1.15 13.15 5.15 13.8 5.45 13.65 5.6 13.5 11.15 13.0 6.35 12.6 5.35 12.75 6.4 12.6 7.1 12.3 5.5 11.85 4.2 11.75 4.75 9.9 1.2 8.85 -0.75 9.7 0.0 8.0 -2.0 M3.45 -5.0 L3.15 -4.9 3.2 -5.0 4.0 -5.95 3.65 -5.15 3.45 -5.0 M7.4 2.2 L5.95 0.05 5.3 -0.7 8.65 2.45 9.85 4.2 10.3 8.7 9.85 8.5 Q6.25 6.75 3.9 3.45 L3.8 3.45 3.75 3.55 4.5 5.65 3.55 3.55 4.15 6.2 4.1 6.25 Q2.65 1.7 -0.15 -1.85 L2.65 1.5 1.85 -0.65 2.45 0.1 Q4.25 4.0 8.05 6.0 L9.5 7.3 8.6 6.35 9.85 6.95 9.35 6.6 9.8 6.75 Q5.95 4.35 3.65 0.9 L4.95 3.05 2.8 0.05 9.3 5.15 7.65 3.6 8.8 4.25 7.4 2.2 M0.2 -4.35 L0.1 -4.2 -3.7 -4.8 -3.8 -4.85 Q-3.85 -5.15 -3.25 -5.25 L-1.5 -4.95 -1.7 -6.0 0.2 -4.35 M-7.95 -3.15 L-10.4 -1.7 -8.75 -2.35 -8.75 -2.2 -8.7 -1.85 -3.55 -4.05 -10.3 -0.05 Q-10.2 -0.85 -10.8 -0.7 L-11.35 -1.0 -11.75 -1.15 -10.15 -2.2 -7.95 -3.15 M-13.95 3.7 L-9.7 0.25 -10.0 0.75 -11.75 3.0 -13.5 5.05 -12.45 3.6 -13.95 3.7 M-13.75 6.4 L-13.0 5.5 -13.05 6.3 -12.6 5.05 -11.8 4.6 -13.1 7.6 -12.8 8.45 -13.75 6.4 M-12.5 9.25 L-12.2 7.9 -9.95 2.75 -5.3 -1.35 -5.25 -1.4 -5.4 -1.15 Q-8.95 1.9 -11.1 5.9 L-11.65 7.3 -11.3 6.85 -11.3 10.1 -12.2 7.9 -12.25 9.85 -12.5 9.25 M-4.65 -0.05 L-3.3 3.15 -2.65 4.45 -0.85 7.35 -1.0 6.8 1.3 9.3 -3.6 5.5 -5.05 0.55 -4.65 -0.05 M-1.05 6.7 L-1.1 6.6 -0.95 6.65 -1.0 6.65 -1.05 6.7 M2.25 3.5 L4.1 6.3 3.4 6.85 2.8 6.25 2.25 3.5 M13.15 2.75 L13.55 3.1 13.55 3.9 13.15 2.75 M15.2 8.0 L14.05 10.9 13.9 5.8 15.2 8.0 M11.65 8.55 L11.05 10.7 10.65 5.75 10.6 5.3 11.3 6.9 11.25 4.8 11.85 7.85 11.65 8.55 M-10.6 5.8 L-9.15 3.7 -7.65 3.4 -5.9 0.4 -5.5 0.05 -5.5 0.5 -5.75 0.8 -5.9 1.25 -6.95 3.9 -6.6 4.85 -5.7 3.8 -5.4 1.7 -4.0 5.85 -4.65 5.4 -4.35 6.0 -5.25 4.95 -6.7 5.55 -6.9 4.8 -10.7 9.05 -10.55 5.8 -10.55 5.75 -10.6 5.8 M-5.25 0.15 L-5.25 -0.15 -4.65 -0.65 -5.25 0.15 M-14.7 9.05 Q-13.3 8.75 -14.4 7.45 L-15.3 6.35 -16.5 7.45 -14.65 5.55 -14.45 6.7 Q-14.4 7.7 -13.55 8.15 L-13.55 10.25 -14.0 9.15 -14.0 9.1 -14.1 9.15 -14.0 10.9 -14.7 9.05 M-16.8 8.45 L-14.8 9.05 -14.6 11.5 -15.75 9.4 -15.85 9.45 -15.5 11.4 -16.8 8.45 M-10.55 13.0 L-11.0 12.25 -10.5 12.4 -10.55 13.0" fill="#739b99" fill-rule="evenodd" stroke="none"/>
      <path d="M3.7 -10.95 L3.65 -11.1 Q3.75 -11.35 3.8 -11.0 L3.7 -10.95 M4.7 5.7 L4.2 8.05 2.9 6.75 2.75 6.85 2.75 7.75 2.65 7.5 2.5 9.05 2.4 8.55 1.4 7.05 0.65 2.45 1.5 2.8 2.25 3.5 2.8 6.25 3.4 6.85 4.1 6.3 4.1 6.25 4.15 6.2 4.5 5.65 4.7 5.7 M-11.3 12.75 L-10.95 13.35 -11.4 12.8 -11.3 12.75 M-10.65 22.85 L-9.65 25.75 -9.8 25.8 -10.65 22.85 M-13.5 14.85 L-13.5 14.8 -13.5 14.75 -13.45 14.8 -13.5 14.85 M8.05 6.0 L8.6 6.35 9.5 7.3 8.05 6.0 M13.8 5.55 L13.65 5.6 13.8 5.45 13.8 5.55 M13.0 6.35 L12.75 6.4 12.6 5.35 13.0 6.35 M12.25 9.15 L12.2 9.55 12.1 9.55 12.25 9.15 M11.85 8.6 L11.65 8.55 11.85 7.85 11.85 8.6 M3.9 3.45 L3.75 3.55 3.8 3.45 3.9 3.45 M1.5 2.8 L1.95 5.6 1.85 5.05 2.65 7.5 1.85 5.05 1.95 5.6 1.5 2.8 M2.4 8.55 L2.4 8.5 1.95 5.6 2.4 8.5 2.4 8.55 M-10.55 5.8 L-10.6 5.8 -10.55 5.75 -10.55 5.8 M-14.1 9.15 L-14.0 9.1 -14.0 9.15 -14.1 9.15" fill="#425e5c" fill-rule="evenodd" stroke="none"/>
      <path d="M3.95 -9.15 L4.25 -9.45 4.35 -7.25 3.2 -5.0 3.15 -4.9 3.45 -5.0 3.55 -5.0 9.8 -1.3 10.6 -0.7 10.75 -0.35 10.9 0.65 11.15 1.8 9.7 0.0 7.7 -2.5 8.0 -2.0 Q5.45 -4.35 1.9 -4.65 L1.4 -4.7 Q2.45 -4.7 3.2 -6.0 3.95 -7.3 3.95 -9.15 M7.4 2.2 Q4.1 0.8 2.15 -2.3 L3.75 0.4 Q1.45 -1.05 0.25 -3.6 0.1 -3.9 0.1 -4.2 L0.2 -4.35 0.45 -4.8 Q0.65 -4.6 0.95 -4.55 L1.25 -4.6 8.85 -0.75 9.9 1.2 8.3 -0.65 9.05 0.8 Q6.55 -2.05 3.05 -3.5 L1.95 -3.95 5.65 -1.45 4.95 -1.65 9.85 2.2 8.65 2.45 5.3 -0.7 5.95 0.05 7.4 2.2 M-3.7 -4.8 L-7.75 -3.25 -7.95 -3.15 -10.15 -2.2 -10.55 -2.1 -10.45 -2.2 -3.2 -6.2 -3.25 -5.25 Q-3.85 -5.15 -3.8 -4.85 L-3.7 -4.8 M-14.0 2.25 L-14.15 2.6 -14.5 2.75 -14.0 2.25 M-10.0 0.75 L-8.15 -0.55 -11.75 3.0 -10.0 0.75 M-5.3 -1.35 L-3.85 -3.15 -4.65 -0.05 -5.05 0.55 -5.1 0.6 -5.25 0.15 -4.65 -0.65 -5.25 -0.15 -5.4 -1.15 -5.25 -1.4 -5.3 -1.35 M-3.3 3.15 L-3.6 2.05 -2.65 4.45 -3.3 3.15 M-0.75 6.85 L-0.05 7.35 -0.9 6.05 -1.0 5.85 -1.15 5.65 -1.6 5.0 -3.7 0.15 -2.55 -3.75 -2.15 -1.55 Q-1.05 2.6 0.55 6.3 L2.1 8.8 1.95 8.9 2.45 9.55 -0.75 6.85 M-0.05 5.45 L0.45 6.1 0.55 6.3 0.45 6.1 -0.05 5.45 -2.5 -1.2 -0.75 4.6 0.0 5.6 -0.05 5.45 M1.95 8.9 L0.45 6.1 1.95 8.9 M-0.9 6.05 L-1.7 3.5 -0.75 4.6 -1.7 3.5 -0.9 6.05 M-5.9 0.4 L-5.5 -0.95 -5.5 0.05 -5.9 0.4 M-5.5 0.5 L-5.45 1.0 -5.9 1.25 -5.75 0.8 -5.5 0.5" fill="#ffffff" fill-rule="evenodd" stroke="none"/>
    </g>
  </defs>
</svg>
